assets/svg/1clc.svg

<svg xmlns="http://www.w3.org/2000/svg" width="50" height="50" fill="none" viewBox="0 0 50 50"><path fill="#2100df" d="M27.95 50H0V0h50v50zM16.43 5.84c-1.35-.32-2.7-.65-4.05-.96-.14-.03-.3-.03-.45 0-.58.11-.89.55-.89 1.22v19.53c0 6.07.01 12.15-.01 18.22-.01.97.79 1.47 1.58 1.22 1.54-.49 3.1-.9 4.65-1.34 1.32-.38 2.64-.76 3.96-1.13.59-.17.88-.55.88-1.17.01-.46 0-.92 0-1.38 0-.07.01-.14.02-.22.08.02.13.03.19.04 2.17.6 4.38.75 6.6.38 4-.65 7.24-2.59 9.76-5.76.09-.11.17-.25.22-.39.17-.47.01-.92-.43-1.27-1.96-1.56-3.92-3.11-5.87-4.67-1.03-.81-2.2-.78-3.18.09-.75.66-1.62 1.03-2.62 1.11-3.18.25-5.56-2.99-4.37-5.96 1.14-2.85 4.68-3.68 6.99-1.65.95.83 2.2.89 3.12.12 1.96-1.64 3.9-3.29 5.85-4.93.53-.46.58-1.09.13-1.64a15.4 15.4 0 0 0-16.06-5.22c-.11.03-.22.05-.35.08V8.23c0-.75-.29-1.11-1.02-1.29-1.54-.36-3.07-.73-4.65-1.1"/><path d="M0 50V0h50v50H0M12.38 4.88c-.14-.03-.3-.03-.45 0-.58.11-.89.55-.89 1.22v19.53c0 6.07.01 12.15-.01 18.22-.01.97.79 1.47 1.58 1.22 1.54-.49 3.1-.9 4.65-1.34 1.32-.38 2.64-.76 3.96-1.13.59-.17.88-.55.88-1.17.01-.46 0-.92 0-1.38 0-.07.01-.14.02-.22.08.02.13.03.19.04 2.17.6 4.38.75 6.6.38 4-.65 7.24-2.59 9.76-5.76.09-.11.17-.25.22-.39.17-.47.01-.92-.43-1.27-1.96-1.56-3.92-3.11-5.87-4.67-1.03-.81-2.2-.78-3.18.09-.75.66-1.62 1.03-2.62 1.11-3.18.25-5.56-2.99-4.37-5.96 1.14-2.85 4.68-3.68 6.99-1.65.95.83 2.2.89 3.12.12 1.96-1.64 3.9-3.29 5.85-4.93.53-.46.58-1.09.13-1.64a15.4 15.4 0 0 0-16.06-5.22c-.11.03-.22.05-.35.08V8.23c0-.75-.29-1.11-1.02-1.29-1.54-.36-3.07-.73-4.65-1.1-1.35-.32-2.7-.65-4.05-.96"/><path fill="#fefeff" d="M16.45 5.84c1.56.37 3.09.74 4.63 1.1.73.18 1.02.54 1.02 1.29v1.93c.13-.03.24-.05.35-.08 5.92-1.61 12.2.43 16.06 5.22.45.55.4 1.18-.13 1.64-1.95 1.64-3.89 3.29-5.85 4.93-.92.77-2.17.71-3.12-.12-2.31-2.03-5.85-1.2-6.99 1.65-1.19 2.97 1.19 6.21 4.37 5.96 1-.08 1.87-.45 2.62-1.11.98-.87 2.15-.9 3.18-.09 1.95 1.56 3.91 3.11 5.87 4.67.44.35.6.8.43 1.27-.05.14-.13.28-.22.39-2.52 3.17-5.76 5.11-9.76 5.76-2.22.37-4.43.22-6.6-.38-.06-.01-.11-.02-.19-.04-.01.08-.02.15-.02.22 0 .46.01.92 0 1.38 0 .62-.29 1-.88 1.17-1.32.37-2.64.75-3.96 1.13-1.55.44-3.11.85-4.65 1.34-.79.25-1.59-.25-1.58-1.22.02-6.07.01-12.15.01-18.22V6.1c0-.67.31-1.11.89-1.22.15-.03.31-.03.45 0 1.35.31 2.7.64 4.07.96m3.44 23.13v-15.4l-.09-.03c-4.65 3.04-6.98 7.3-6.43 12.91.43 4.4 2.75 7.68 6.52 10.03zm15.38 5.93c.32-.33.64-.66.97-.99-.03-.03-.07-.06-.1-.09-1.65-1.31-3.29-2.61-4.93-3.92-.15-.12-.23-.07-.36.03-2.51 2.17-5.99 2.22-8.58.13-.05-.03-.09-.06-.16-.11 0 .07-.01.1-.01.13 0 2.41.01 4.81 0 7.22 0 .17.07.21.2.25 1.73.58 3.51.79 5.32.63 2.9-.26 5.44-1.34 7.65-3.28M22.1 13.87v6.21c.07-.04.09-.06.11-.07a6.53 6.53 0 0 1 8.67.08c.14.13.23.08.35-.02 1.11-.94 2.23-1.88 3.34-2.82l1.55-1.31c-3.71-4.08-9.57-5.07-14.02-3.41zm-5.01-1.15c.83-.63 1.7-1.18 2.63-1.62.07-.03.16-.12.16-.18.02-.65.01-1.31.01-1.98-2.22-.53-4.42-1.05-6.63-1.58v9.61c1.04-1.67 2.29-3.07 3.83-4.25m-3.84 23.85v5.99c2.23-.63 4.43-1.26 6.64-1.89 0-.37-.03-.73.01-1.09.05-.44-.1-.66-.52-.87-2.48-1.27-4.47-3.1-5.97-5.45l-.16-.24z"/><path d="M21.08 6.94c.73.18 1.02.54 1.02 1.29v1.93c.13-.03.24-.05.35-.08 5.92-1.61 12.2.43 16.06 5.22.45.55.4 1.18-.13 1.64-1.95 1.64-3.89 3.29-5.85 4.93-.92.77-2.17.71-3.12-.12-2.31-2.03-5.85-1.2-6.99 1.65-1.19 2.97 1.19 6.21 4.37 5.96 1-.08 1.87-.45 2.62-1.11.98-.87 2.15-.9 3.18-.09 1.95 1.56 3.91 3.11 5.87 4.67.44.35.6.8.43 1.27-.05.14-.13.28-.22.39-2.52 3.17-5.76 5.11-9.76 5.76-2.22.37-4.43.22-6.6-.38-.06-.01-.11-.02-.19-.04-.01.08-.02.15-.02.22 0 .46.01.92 0 1.38 0 .62-.29 1-.88 1.17-1.32.37-2.64.75-3.96 1.13-1.55.44-3.11.85-4.65 1.34-.79.25-1.59-.25-1.58-1.22.02-6.07.01-12.15.01-18.22V6.1c0-.67.31-1.11.89-1.22.15-.03.31-.03.45 0 1.35.31 2.7.64 4.07.96 1.56.37 3.09.74 4.63 1.1m-1.19 6.63-.09-.03c-4.65 3.04-6.98 7.3-6.43 12.91.43 4.4 2.75 7.68 6.52 10.03V13.57m16.35 20.34c-.03-.03-.07-.06-.1-.09-1.65-1.31-3.29-2.61-4.93-3.92-.15-.12-.23-.07-.36.03-2.51 2.17-5.99 2.22-8.58.13-.05-.03-.09-.06-.16-.11 0 .07-.01.1-.01.13 0 2.41.01 4.81 0 7.22 0 .17.07.21.2.25 1.73.58 3.51.79 5.32.63 2.9-.26 5.44-1.34 7.65-3.28.32-.33.64-.66.97-.99M22.1 20.08c.07-.04.09-.06.11-.07a6.53 6.53 0 0 1 8.67.08c.14.13.23.08.35-.02 1.11-.94 2.23-1.88 3.34-2.82l1.55-1.31c-3.71-4.08-9.57-5.07-14.02-3.41v7.55m-2.38-8.98c.07-.03.16-.12.16-.18.02-.65.01-1.31.01-1.98-2.22-.53-4.42-1.05-6.63-1.58v9.61c1.04-1.67 2.29-3.07 3.83-4.25.83-.63 1.7-1.18 2.63-1.62m-6.47 31.46c2.23-.63 4.43-1.26 6.64-1.89 0-.37-.03-.73.01-1.09.05-.44-.1-.66-.52-.87-2.48-1.27-4.47-3.1-5.97-5.45l-.16-.24v9.54"/><path fill="#2201df" d="M19.89 29v7.48c-3.77-2.35-6.09-5.63-6.52-10.03-.55-5.61 1.78-9.87 6.43-12.91l.09.03z"/><path d="M19.89 36.48c-3.77-2.35-6.09-5.63-6.52-10.03-.55-5.61 1.78-9.87 6.43-12.91l.09.03v22.91"/><path fill="#2201df" d="M35.26 34.91c-2.2 1.93-4.74 3.01-7.64 3.27-1.81.16-3.59-.05-5.32-.63-.13-.04-.2-.08-.2-.25.01-2.41 0-4.81 0-7.22 0-.03.01-.06.01-.13.07.05.11.08.16.11 2.59 2.09 6.07 2.04 8.58-.13.13-.1.21-.15.36-.03 1.64 1.31 3.28 2.61 4.93 3.92.03.03.07.06.1.09-.33.33-.65.66-.98 1"/><path d="M27.62 38.18c-1.81.16-3.59-.05-5.32-.63-.13-.04-.2-.08-.2-.25.01-2.41 0-4.81 0-7.22 0-.03.01-.06.01-.13.07.05.11.08.16.11 2.59 2.09 6.07 2.04 8.58-.13.13-.1.21-.15.36-.03 1.64 1.31 3.28 2.61 4.93 3.92.03.03.07.06.1.09-.33.33-.65.66-.98 1-2.2 1.93-4.74 3.01-7.64 3.27"/><path fill="#2201df" d="M22.1 13.85v-1.32c4.45-1.66 10.31-.67 14.02 3.41l-1.55 1.31c-1.11.94-2.23 1.88-3.34 2.82-.12.1-.21.15-.35.02a6.53 6.53 0 0 0-8.67-.08c-.02.01-.04.03-.11.07z"/><path d="M22.1 12.53c4.45-1.66 10.31-.67 14.02 3.41l-1.55 1.31c-1.11.94-2.23 1.88-3.34 2.82-.12.1-.21.15-.35.02a6.53 6.53 0 0 0-8.67-.08c-.02.01-.04.03-.11.07v-7.55"/><path fill="#2201df" d="M17.08 12.73c-1.53 1.17-2.78 2.57-3.82 4.24V7.36c2.21.53 4.41 1.05 6.63 1.58 0 .67.01 1.33-.01 1.98 0 .06-.09.15-.16.18-.93.44-1.8.99-2.64 1.63"/><path d="M13.26 16.97V7.36c2.21.53 4.41 1.05 6.63 1.58 0 .67.01 1.33-.01 1.98 0 .06-.09.15-.16.18-.93.44-1.8.99-2.64 1.63-1.53 1.17-2.78 2.57-3.82 4.24"/><path fill="#2201df" d="M13.25 36.54v-3.52l.16.24c1.5 2.35 3.49 4.18 5.97 5.45.42.21.57.43.52.87-.04.36-.01.72-.01 1.09-2.21.63-4.41 1.26-6.64 1.89z"/><path d="m13.25 33.02.16.24c1.5 2.35 3.49 4.18 5.97 5.45.42.21.57.43.52.87-.04.36-.01.72-.01 1.09-2.21.63-4.41 1.26-6.64 1.89v-9.54"/></svg>

<svg width="50.000000" height="50.000000" viewBox="0 0 50 50" fill="none" xmlns="http://www.w3.org/2000/svg" xmlns:xlink="http://www.w3.org/1999/xlink">
	<desc>
			Created with Pixso.
	</desc>
	<defs/>
	<path id="path" d="M27.95 50C18.61 50 9.3 50 0 50C0 33.33 0 16.66 0 0C16.66 0 33.33 0 50 0C50 16.66 50 33.33 50 50C42.65 50 35.31 50 27.95 50ZM16.43 5.84C15.08 5.52 13.73 5.19 12.38 4.88C12.24 4.85 12.08 4.85 11.93 4.88C11.35 4.99 11.04 5.43 11.04 6.1C11.04 12.61 11.04 19.12 11.04 25.63C11.04 31.7 11.05 37.78 11.03 43.85C11.02 44.82 11.82 45.32 12.61 45.07C14.15 44.58 15.71 44.17 17.26 43.73C18.58 43.35 19.9 42.97 21.22 42.6C21.81 42.43 22.1 42.05 22.1 41.43C22.11 40.97 22.1 40.51 22.1 40.05C22.1 39.98 22.11 39.91 22.12 39.83C22.2 39.85 22.25 39.86 22.31 39.87C24.48 40.47 26.69 40.62 28.91 40.25C32.91 39.6 36.15 37.66 38.67 34.49C38.76 34.38 38.84 34.24 38.89 34.1C39.06 33.63 38.9 33.18 38.46 32.83C36.5 31.27 34.54 29.72 32.59 28.16C31.56 27.35 30.39 27.38 29.41 28.25C28.66 28.91 27.79 29.28 26.79 29.36C23.61 29.61 21.23 26.37 22.42 23.4C23.56 20.55 27.1 19.72 29.41 21.75C30.36 22.58 31.61 22.64 32.53 21.87C34.49 20.23 36.43 18.58 38.38 16.94C38.91 16.48 38.96 15.85 38.51 15.3C34.65 10.51 28.37 8.47 22.45 10.08C22.34 10.11 22.23 10.13 22.1 10.16C22.1 9.49 22.1 8.86 22.1 8.23C22.1 7.48 21.81 7.12 21.08 6.94C19.54 6.58 18.01 6.21 16.43 5.84Z" fill="#2100DF" fill-opacity="1.000000" fill-rule="nonzero"/>
	<path id="path" d="M0 50C0 33.33 0 16.66 0 0C16.66 0 33.33 0 50 0C50 16.66 50 33.33 50 50C42.65 50 35.31 50 27.95 50C18.61 50 9.3 50 0 50ZM12.38 4.88C12.24 4.85 12.08 4.85 11.93 4.88C11.35 4.99 11.04 5.43 11.04 6.1C11.04 12.61 11.04 19.12 11.04 25.63C11.04 31.7 11.05 37.78 11.03 43.85C11.02 44.82 11.82 45.32 12.61 45.07C14.15 44.58 15.71 44.17 17.26 43.73C18.58 43.35 19.9 42.97 21.22 42.6C21.81 42.43 22.1 42.05 22.1 41.43C22.11 40.97 22.1 40.51 22.1 40.05C22.1 39.98 22.11 39.91 22.12 39.83C22.2 39.85 22.25 39.86 22.31 39.87C24.48 40.47 26.69 40.62 28.91 40.25C32.91 39.6 36.15 37.66 38.67 34.49C38.76 34.38 38.84 34.24 38.89 34.1C39.06 33.63 38.9 33.18 38.46 32.83C36.5 31.27 34.54 29.72 32.59 28.16C31.56 27.35 30.39 27.38 29.41 28.25C28.66 28.91 27.79 29.28 26.79 29.36C23.61 29.61 21.23 26.37 22.42 23.4C23.56 20.55 27.1 19.72 29.41 21.75C30.36 22.58 31.61 22.64 32.53 21.87C34.49 20.23 36.43 18.58 38.38 16.94C38.91 16.48 38.96 15.85 38.51 15.3C34.65 10.51 28.37 8.47 22.45 10.08C22.34 10.11 22.23 10.13 22.1 10.16C22.1 9.49 22.1 8.86 22.1 8.23C22.1 7.48 21.81 7.12 21.08 6.94C19.54 6.58 18.01 6.21 16.43 5.84C15.08 5.52 13.73 5.19 12.38 4.88Z" stroke="#000000" stroke-opacity="0" stroke-width="1.000000"/>
	<path id="path" d="M16.45 5.84C18.01 6.21 19.54 6.58 21.08 6.94C21.81 7.12 22.1 7.48 22.1 8.23C22.1 8.86 22.1 9.49 22.1 10.16C22.23 10.13 22.34 10.11 22.45 10.08C28.37 8.47 34.65 10.51 38.51 15.3C38.96 15.85 38.91 16.48 38.38 16.94C36.43 18.58 34.49 20.23 32.53 21.87C31.61 22.64 30.36 22.58 29.41 21.75C27.1 19.72 23.56 20.55 22.42 23.4C21.23 26.37 23.61 29.61 26.79 29.36C27.79 29.28 28.66 28.91 29.41 28.25C30.39 27.38 31.56 27.35 32.59 28.16C34.54 29.72 36.5 31.27 38.46 32.83C38.9 33.18 39.06 33.63 38.89 34.1C38.84 34.24 38.76 34.38 38.67 34.49C36.15 37.66 32.91 39.6 28.91 40.25C26.69 40.62 24.48 40.47 22.31 39.87C22.25 39.86 22.2 39.85 22.12 39.83C22.11 39.91 22.1 39.98 22.1 40.05C22.1 40.51 22.11 40.97 22.1 41.43C22.1 42.05 21.81 42.43 21.22 42.6C19.9 42.97 18.58 43.35 17.26 43.73C15.71 44.17 14.15 44.58 12.61 45.07C11.82 45.32 11.02 44.82 11.03 43.85C11.05 37.78 11.04 31.7 11.04 25.63C11.04 19.12 11.04 12.61 11.04 6.1C11.04 5.43 11.35 4.99 11.93 4.88C12.08 4.85 12.24 4.85 12.38 4.88C13.73 5.19 15.08 5.52 16.45 5.84ZM19.89 28.97C19.89 23.84 19.89 18.7 19.89 13.57C19.86 13.56 19.83 13.55 19.8 13.54C15.15 16.58 12.82 20.84 13.37 26.45C13.8 30.85 16.12 34.13 19.89 36.48C19.89 33.95 19.89 31.48 19.89 28.97ZM35.27 34.9C35.59 34.57 35.91 34.24 36.24 33.91C36.21 33.88 36.17 33.85 36.14 33.82C34.49 32.51 32.85 31.21 31.21 29.9C31.06 29.78 30.98 29.83 30.85 29.93C28.34 32.1 24.86 32.15 22.27 30.06C22.22 30.03 22.18 30 22.11 29.95C22.11 30.02 22.1 30.05 22.1 30.08C22.1 32.49 22.11 34.89 22.1 37.3C22.1 37.47 22.17 37.51 22.3 37.55C24.03 38.13 25.81 38.34 27.62 38.18C30.52 37.92 33.06 36.84 35.27 34.9ZM22.1 13.87C22.1 15.93 22.1 17.99 22.1 20.08C22.17 20.04 22.19 20.02 22.21 20.01C24.76 17.81 28.46 17.9 30.88 20.09C31.02 20.22 31.11 20.17 31.23 20.07C32.34 19.13 33.46 18.19 34.57 17.25C35.09 16.81 35.6 16.38 36.12 15.94C32.41 11.86 26.55 10.87 22.1 12.53C22.1 12.95 22.1 13.39 22.1 13.87ZM17.09 12.72C17.92 12.09 18.79 11.54 19.72 11.1C19.79 11.07 19.88 10.98 19.88 10.92C19.9 10.27 19.89 9.61 19.89 8.94C17.67 8.41 15.47 7.89 13.26 7.36C13.26 10.57 13.26 13.74 13.26 16.97C14.3 15.3 15.55 13.9 17.09 12.72ZM13.25 36.57C13.25 38.56 13.25 40.55 13.25 42.56C15.48 41.93 17.68 41.3 19.89 40.67C19.89 40.3 19.86 39.94 19.9 39.58C19.95 39.14 19.8 38.92 19.38 38.71C16.9 37.44 14.91 35.61 13.41 33.26C13.37 33.2 13.33 33.14 13.25 33.02C13.25 34.24 13.25 35.38 13.25 36.57Z" fill="#FEFEFF" fill-opacity="1.000000" fill-rule="nonzero"/>
	<path id="path" d="M21.08 6.94C21.81 7.12 22.1 7.48 22.1 8.23C22.1 8.86 22.1 9.49 22.1 10.16C22.23 10.13 22.34 10.11 22.45 10.08C28.37 8.47 34.65 10.51 38.51 15.3C38.96 15.85 38.91 16.48 38.38 16.94C36.43 18.58 34.49 20.23 32.53 21.87C31.61 22.64 30.36 22.58 29.41 21.75C27.1 19.72 23.56 20.55 22.42 23.4C21.23 26.37 23.61 29.61 26.79 29.36C27.79 29.28 28.66 28.91 29.41 28.25C30.39 27.38 31.56 27.35 32.59 28.16C34.54 29.72 36.5 31.27 38.46 32.83C38.9 33.18 39.06 33.63 38.89 34.1C38.84 34.24 38.76 34.38 38.67 34.49C36.15 37.66 32.91 39.6 28.91 40.25C26.69 40.62 24.48 40.47 22.31 39.87C22.25 39.86 22.2 39.85 22.12 39.83C22.11 39.91 22.1 39.98 22.1 40.05C22.1 40.51 22.11 40.97 22.1 41.43C22.1 42.05 21.81 42.43 21.22 42.6C19.9 42.97 18.58 43.35 17.26 43.73C15.71 44.17 14.15 44.58 12.61 45.07C11.82 45.32 11.02 44.82 11.03 43.85C11.05 37.78 11.04 31.7 11.04 25.63C11.04 19.12 11.04 12.61 11.04 6.1C11.04 5.43 11.35 4.99 11.93 4.88C12.08 4.85 12.24 4.85 12.38 4.88C13.73 5.19 15.08 5.52 16.45 5.84C18.01 6.21 19.54 6.58 21.08 6.94ZM19.89 13.57C19.86 13.56 19.83 13.55 19.8 13.54C15.15 16.58 12.82 20.84 13.37 26.45C13.8 30.85 16.12 34.13 19.89 36.48C19.89 33.95 19.89 31.48 19.89 28.97C19.89 23.84 19.89 18.7 19.89 13.57ZM36.24 33.91C36.21 33.88 36.17 33.85 36.14 33.82C34.49 32.51 32.85 31.21 31.21 29.9C31.06 29.78 30.98 29.83 30.85 29.93C28.34 32.1 24.86 32.15 22.27 30.06C22.22 30.03 22.18 30 22.11 29.95C22.11 30.02 22.1 30.05 22.1 30.08C22.1 32.49 22.11 34.89 22.1 37.3C22.1 37.47 22.17 37.51 22.3 37.55C24.03 38.13 25.81 38.34 27.62 38.18C30.52 37.92 33.06 36.84 35.27 34.9C35.59 34.57 35.91 34.24 36.24 33.91ZM22.1 20.08C22.17 20.04 22.19 20.02 22.21 20.01C24.76 17.81 28.46 17.9 30.88 20.09C31.02 20.22 31.11 20.17 31.23 20.07C32.34 19.13 33.46 18.19 34.57 17.25C35.09 16.81 35.6 16.38 36.12 15.94C32.41 11.86 26.55 10.87 22.1 12.53C22.1 12.95 22.1 13.39 22.1 13.87C22.1 15.93 22.1 17.99 22.1 20.08ZM19.72 11.1C19.79 11.07 19.88 10.98 19.88 10.92C19.9 10.27 19.89 9.61 19.89 8.94C17.67 8.41 15.47 7.89 13.26 7.36C13.26 10.57 13.26 13.74 13.26 16.97C14.3 15.3 15.55 13.9 17.09 12.72C17.92 12.09 18.79 11.54 19.72 11.1ZM13.25 42.56C15.48 41.93 17.68 41.3 19.89 40.67C19.89 40.3 19.86 39.94 19.9 39.58C19.95 39.14 19.8 38.92 19.38 38.71C16.9 37.44 14.91 35.61 13.41 33.26C13.37 33.2 13.33 33.14 13.25 33.02C13.25 34.24 13.25 35.38 13.25 36.57C13.25 38.56 13.25 40.55 13.25 42.56Z" stroke="#000000" stroke-opacity="0" stroke-width="1.000000"/>
	<path id="path" d="M19.89 29C19.89 31.48 19.89 33.95 19.89 36.48C16.12 34.13 13.8 30.85 13.37 26.45C12.82 20.84 15.15 16.58 19.8 13.54C19.83 13.55 19.86 13.56 19.89 13.57C19.89 18.7 19.89 23.84 19.89 29Z" fill="#2201DF" fill-opacity="1.000000" fill-rule="nonzero"/>
	<path id="path" d="M19.89 36.48C16.12 34.13 13.8 30.85 13.37 26.45C12.82 20.84 15.15 16.58 19.8 13.54C19.83 13.55 19.86 13.56 19.89 13.57C19.89 18.7 19.89 23.84 19.89 29C19.89 31.48 19.89 33.95 19.89 36.48Z" stroke="#000000" stroke-opacity="0" stroke-width="1.000000"/>
	<path id="path" d="M35.26 34.91C33.06 36.84 30.52 37.92 27.62 38.18C25.81 38.34 24.03 38.13 22.3 37.55C22.17 37.51 22.1 37.47 22.1 37.3C22.11 34.89 22.1 32.49 22.1 30.08C22.1 30.05 22.11 30.02 22.11 29.95C22.18 30 22.22 30.03 22.27 30.06C24.86 32.15 28.34 32.1 30.85 29.93C30.98 29.83 31.06 29.78 31.21 29.9C32.85 31.21 34.49 32.51 36.14 33.82C36.17 33.85 36.21 33.88 36.24 33.91C35.91 34.24 35.59 34.57 35.26 34.91Z" fill="#2201DF" fill-opacity="1.000000" fill-rule="nonzero"/>
	<path id="path" d="M27.62 38.18C25.81 38.34 24.03 38.13 22.3 37.55C22.17 37.51 22.1 37.47 22.1 37.3C22.11 34.89 22.1 32.49 22.1 30.08C22.1 30.05 22.11 30.02 22.11 29.95C22.18 30 22.22 30.03 22.27 30.06C24.86 32.15 28.34 32.1 30.85 29.93C30.98 29.83 31.06 29.78 31.21 29.9C32.85 31.21 34.49 32.51 36.14 33.82C36.17 33.85 36.21 33.88 36.24 33.91C35.91 34.24 35.59 34.57 35.26 34.91C33.06 36.84 30.52 37.92 27.62 38.18Z" stroke="#000000" stroke-opacity="0" stroke-width="1.000000"/>
	<path id="path" d="M22.1 13.85C22.1 13.39 22.1 12.95 22.1 12.53C26.55 10.87 32.41 11.86 36.12 15.94C35.6 16.38 35.09 16.81 34.57 17.25C33.46 18.19 32.34 19.13 31.23 20.07C31.11 20.17 31.02 20.22 30.88 20.09C28.46 17.9 24.76 17.81 22.21 20.01C22.19 20.02 22.17 20.04 22.1 20.08C22.1 17.99 22.1 15.93 22.1 13.85Z" fill="#2201DF" fill-opacity="1.000000" fill-rule="nonzero"/>
	<path id="path" d="M22.1 12.53C26.55 10.87 32.41 11.86 36.12 15.94C35.6 16.38 35.09 16.81 34.57 17.25C33.46 18.19 32.34 19.13 31.23 20.07C31.11 20.17 31.02 20.22 30.88 20.09C28.46 17.9 24.76 17.81 22.21 20.01C22.19 20.02 22.17 20.04 22.1 20.08C22.1 17.99 22.1 15.93 22.1 13.85C22.1 13.39 22.1 12.95 22.1 12.53Z" stroke="#000000" stroke-opacity="0" stroke-width="1.000000"/>
	<path id="path" d="M17.08 12.73C15.55 13.9 14.3 15.3 13.26 16.97C13.26 13.74 13.26 10.57 13.26 7.36C15.47 7.89 17.67 8.41 19.89 8.94C19.89 9.61 19.9 10.27 19.88 10.92C19.88 10.98 19.79 11.07 19.72 11.1C18.79 11.54 17.92 12.09 17.08 12.73Z" fill="#2201DF" fill-opacity="1.000000" fill-rule="nonzero"/>
	<path id="path" d="M13.26 16.97C13.26 13.74 13.26 10.57 13.26 7.36C15.47 7.89 17.67 8.41 19.89 8.94C19.89 9.61 19.9 10.27 19.88 10.92C19.88 10.98 19.79 11.07 19.72 11.1C18.79 11.54 17.92 12.09 17.08 12.73C15.55 13.9 14.3 15.3 13.26 16.97Z" stroke="#000000" stroke-opacity="0" stroke-width="1.000000"/>
	<path id="path" d="M13.25 36.54C13.25 35.38 13.25 34.24 13.25 33.02C13.33 33.14 13.37 33.2 13.41 33.26C14.91 35.61 16.9 37.44 19.38 38.71C19.8 38.92 19.95 39.14 19.9 39.58C19.86 39.94 19.89 40.3 19.89 40.67C17.68 41.3 15.48 41.93 13.25 42.56C13.25 40.55 13.25 38.56 13.25 36.54Z" fill="#2201DF" fill-opacity="1.000000" fill-rule="nonzero"/>
	<path id="path" d="M13.25 33.02C13.33 33.14 13.37 33.2 13.41 33.26C14.91 35.61 16.9 37.44 19.38 38.71C19.8 38.92 19.95 39.14 19.9 39.58C19.86 39.94 19.89 40.3 19.89 40.67C17.68 41.3 15.48 41.93 13.25 42.56C13.25 40.55 13.25 38.56 13.25 36.54C13.25 35.38 13.25 34.24 13.25 33.02Z" stroke="#000000" stroke-opacity="0" stroke-width="1.000000"/>
</svg>
